Newaita-dark/apps/48/netflix.svg

<svg height="48" viewBox="0 0 48 48" width="48" xmlns="http://www.w3.org/2000/svg" xmlns:xlink="http://www.w3.org/1999/xlink"><linearGradient id="a" gradientUnits="userSpaceOnUse" x1="23.81478" x2="23.81478" y1="42.0509045" y2="44.03547050005"><stop offset="0" stop-opacity=".27451"/><stop offset="1" stop-opacity="0"/></linearGradient><linearGradient id="b"><stop offset="0" stop-opacity=".313726"/><stop offset=".222222" stop-opacity=".27451"/><stop offset="1" stop-opacity="0"/></linearGradient><radialGradient id="c" cx="450.908936" cy="189.579361" gradientTransform="matrix(.00000026 -.117199 -.210958 -.00000015 78.195972 95.392999)" gradientUnits="userSpaceOnUse" r="21.166656" xlink:href="#b"/><radialGradient id="d" cx="450.908936" cy="189.579361" gradientTransform="matrix(-.00000026 .117199 .210958 .00000015 -30.56642 -11.291218)" gradientUnits="userSpaceOnUse" r="21.166656" xlink:href="#b"/><radialGradient id="e" cx="450.908936" cy="189.579361" gradientTransform="matrix(-.00000026 -.117199 .210958 -.00000015 -30.56642 95.392999)" gradientUnits="userSpaceOnUse" r="21.166656" xlink:href="#b"/><radialGradient id="f" cx="450.908936" cy="189.579361" gradientTransform="matrix(.00000026 .117199 -.210958 .00000015 78.195969 -11.291219)" gradientUnits="userSpaceOnUse" r="21.166656" xlink:href="#b"/><linearGradient id="g" gradientUnits="userSpaceOnUse" x1="15.87652349995" x2="15.87652349995" y1="42.0509015" y2="4.3441580001"><stop offset="0" stop-color="#424242"/><stop offset="1" stop-color="#616161"/></linearGradient><linearGradient id="h"><stop offset="0" stop-color="#f44336"/><stop offset="1" stop-color="#ef5350"/></linearGradient><linearGradient id="i" gradientUnits="userSpaceOnUse" x1="720.00011449082" x2="720.00011449082" xlink:href="#h" y1="1415.11822549082" y2="455.11808325459"/><linearGradient id="j" gradientUnits="userSpaceOnUse" x1="30.76075825005" x2="30.76075825005" xlink:href="#h" y1="35.10492175005" y2="11.29013499998"/><linearGradient id="k" gradientUnits="userSpaceOnUse" x1="31.7530469999" x2="31.7530469999" y1="35.10492175005" y2="11.29013499998"><stop offset="0" stop-color="#e57373"/><stop offset="1" stop-color="#ef9a9a"/></linearGradient><path d="m8.929688 41.902344h29.769531v2.207031h-29.769531zm0 0" fill="url(#a)"/><path d="m38.699219 42.050781h3.96875v-1.984375h-3.96875zm0 0" fill="url(#c)"/><path d="m8.929688 42.050781h-3.96875v1.984375h3.96875zm0 0" fill="url(#d)"/><path d="m8.929688 42.050781h-3.96875v-1.984375h3.96875zm0 0" fill="url(#e)"/><path d="m38.699219 42.050781h3.96875v1.984375h-3.96875zm0 0" fill="url(#f)"/><path d="m6.945312 4.34375h33.738282c1.097656 0 1.984375.890625 1.984375 1.984375v33.738281c0 1.097656-.886719 1.984375-1.984375 1.984375h-33.738282c-1.09375 0-1.984374-.886719-1.984374-1.984375v-33.738281c0-1.09375.890624-1.984375 1.984374-1.984375zm0 0" fill="url(#g)"/><path d="m6.945312 4.34375c-1.097656 0-1.984374.886719-1.984374 1.984375v.25c0-1.101563.886718-1.988281 1.984374-1.984375h33.738282c1.097656-.003906 1.984375.882812 1.984375 1.984375v-.25c0-1.097656-.886719-1.984375-1.984375-1.984375zm0 0" fill="#e6e6e6" fill-opacity=".392157"/><path d="m6.945312 42.050781c-1.097656 0-1.984374-.886719-1.984374-1.984375v-.25c0 1.101563.886718 1.988282 1.984374 1.988282h33.738282c1.097656 0 1.984375-.886719 1.984375-1.988282v.25c0 1.097656-.886719 1.984375-1.984375 1.984375zm0 0" fill-opacity=".196078"/><path d="m74.076259-168.671091h359.840637c11.707216 0 21.164646 9.499093 21.164646 21.164646v359.840637c0 11.707215-9.45743 21.164645-21.164646 21.164645h-359.840637c-11.665552 0-21.164645-9.45743-21.164645-21.164645v-359.840637c0-11.665553 9.499093-21.164646 21.164645-21.164646zm0 0" fill="none" stroke="#212121" stroke-linecap="round" stroke-width="3" transform="matrix(.093759 0 0 .093759 0 20.158175)"/><path d="m599.94274 455.074677v960.065849h1.259722c62.986115-26.611634 129.593931-46.294794 198.721191-58.262156v-901.803693zm0 0" fill="url(#i)" stroke="#212121" stroke-width="11.338583" transform="scale(.0248071)"/><path d="m27.785156 11.289062v22.371094c1.71875.296875 3.367188.785156 4.929688 1.445313h.03125v-23.816407zm0 0" fill="url(#j)"/><path d="m27.785156 11.414062v.496094h4.960938v-.496094zm0 0" fill="#fff" fill-opacity=".392157"/><path d="m1120.05058 455.074677v901.803693c69.284726 11.967362 135.735076 31.650522 198.721191 58.262156h1.259722v-960.065849zm0 0" fill="none" stroke="#212121" stroke-width="11.338583" transform="scale(.0248071)"/><path d="m14.882812 11.289062 12.046876 22.238282c2.027343.273437 3.964843.8125 5.785156 1.578125h.03125l-12.902344-23.816407zm0 0" fill="url(#k)"/><path d="m14.882812 11.4375.269532.496094h4.691406l12.5625 23.191406c.105469.042969.207031.085938.308594.128906h.03125l-12.902344-23.816406zm0 0" fill="#fff" fill-opacity=".392157"/><path d="m19.84375 20.449219v.703125l7.085938 13.078125c.296874.039062.59375.085937.886718.136719.089844.015624.179688.03125.269532.046874.019531.003907.035156.007813.054687.011719.089844.015625.175781.035157.265625.050781.007812.003907.015625.003907.023438.007813h.003906c.09375.019531.191406.039063.285156.058594.015625.003906.027344.007812.039062.007812.09375.023438.1875.042969.28125.066407.015626.003906.03125.003906.042969.007812.097657.023438.191407.046875.289063.070312.003906 0 .007812.003907.011718.003907.09375.023437.1875.046875.28125.070312.011719.003907.023438.007813.035157.007813.089843.027344.183593.050781.277343.078125.011719.003906.027344.007812.042969.011719.089844.023437.183594.050781.273438.078124.015625.003907.027343.007813.039062.011719.09375.027344.1875.054688.285157.085938.089843.027343.183593.058593.277343.085937.015625.007813.03125.011719.042969.015625.089844.027344.175781.058594.265625.089844.015625.003906.035156.011719.050781.015625.089844.03125.175782.0625.265625.09375.007813.003906.019531.007812.03125.011719.085938.027343.171875.0625.257813.09375.007812.003906.015625.003906.027344.007812.085937.035157.175781.066407.261718.101563.015625.007812.03125.011718.046875.019531.085938.03125.171875.066406.257813.101563.015625.003906.03125.011718.046875.019531.089843.035156.175781.070312.265625.109375h.03125v-.703125h-.03125c-.089844-.039063-.175782-.074219-.265625-.109375-.015625-.007813-.03125-.011719-.046875-.019532-.085938-.035156-.171875-.070312-.257813-.101562-.015625-.007812-.03125-.011719-.046875-.019531-.085937-.035157-.175781-.066407-.261718-.101563-.011719 0-.019532-.003906-.027344-.007812-.085938-.03125-.171875-.0625-.257813-.09375-.011719-.003906-.023437-.007813-.03125-.011719-.089843-.03125-.175781-.0625-.265625-.09375-.015625-.003906-.035156-.011719-.050781-.015625-.089844-.03125-.175781-.058594-.265625-.089844-.011719-.003906-.027344-.007812-.042969-.011718-.09375-.03125-.1875-.0625-.277343-.089844-.097657-.03125-.191407-.058594-.285157-.085938-.011719-.003906-.023437-.007812-.039062-.011718-.089844-.027344-.183594-.050782-.273438-.078126-.015625-.003906-.03125-.007812-.042969-.011718-.09375-.027344-.1875-.050782-.277343-.074219-.011719-.003906-.023438-.007813-.035157-.011719-.09375-.023437-.1875-.046875-.28125-.070312-.003906 0-.007812-.003906-.011718-.003906-.097656-.023438-.191406-.046876-.289063-.070313-.011719 0-.027343-.003906-.042969-.007813-.09375-.023437-.1875-.042968-.28125-.0625-.011718-.003906-.023437-.007812-.039062-.011718-.09375-.019532-.191406-.039063-.285156-.058594-.003906 0-.003906 0-.003906 0-.007813-.003906-.015626-.003906-.023438-.003906-.089844-.019532-.175781-.035156-.265625-.054688-.019531-.003906-.035156-.007812-.054687-.007812-.089844-.019532-.179688-.035156-.269532-.050782-.292968-.050781-.589844-.097656-.886718-.136718zm0 13.210937c-1.714844.296875-3.367188.785156-4.929688 1.445313h-.03125v.703125h.03125c1.5625-.660156 3.214844-1.148438 4.929688-1.449219zm0 0" fill-opacity=".235294"/><path d="m599.94274 455.074677 485.622942 896.449873c81.724484 11.02257 159.827265 32.75278 233.206089 63.615976h1.259722l-520.10784-960.065849zm0 0" fill="none" stroke="#212121" stroke-width="11.338583" transform="scale(.0248071)"/></svg>

<?xml version="1.0" encoding="UTF-8"?>
<svg xmlns="http://www.w3.org/2000/svg" xmlns:xlink="http://www.w3.org/1999/xlink" width="48px" height="48px" viewBox="0 0 48 48" version="1.1">
<defs>
<linearGradient id="linear0" gradientUnits="userSpaceOnUse" x1="254" y1="233.5" x2="254" y2="254.666672" gradientTransform="matrix(0.093759,0,0,0.093759,-0.00000572259,20.158178)">
<stop offset="0" style="stop-color:rgb(0%,0%,0%);stop-opacity:0.27451;"/>
<stop offset="1" style="stop-color:rgb(0%,0%,0%);stop-opacity:0;"/>
</linearGradient>
<radialGradient id="radial0" gradientUnits="userSpaceOnUse" cx="450.908936" cy="189.579361" fx="450.908936" fy="189.579361" r="21.166656" gradientTransform="matrix(0.000000261256,-0.117199,-0.210958,-0.000000152308,78.195972,95.392999)">
<stop offset="0" style="stop-color:rgb(0%,0%,0%);stop-opacity:0.313726;"/>
<stop offset="0.222222" style="stop-color:rgb(0%,0%,0%);stop-opacity:0.27451;"/>
<stop offset="1" style="stop-color:rgb(0%,0%,0%);stop-opacity:0;"/>
</radialGradient>
<radialGradient id="radial1" gradientUnits="userSpaceOnUse" cx="450.908936" cy="189.579361" fx="450.908936" fy="189.579361" r="21.166656" gradientTransform="matrix(-0.000000261256,0.117199,0.210958,0.000000152308,-30.56642,-11.291218)">
<stop offset="0" style="stop-color:rgb(0%,0%,0%);stop-opacity:0.313726;"/>
<stop offset="0.222222" style="stop-color:rgb(0%,0%,0%);stop-opacity:0.27451;"/>
<stop offset="1" style="stop-color:rgb(0%,0%,0%);stop-opacity:0;"/>
</radialGradient>
<radialGradient id="radial2" gradientUnits="userSpaceOnUse" cx="450.908936" cy="189.579361" fx="450.908936" fy="189.579361" r="21.166656" gradientTransform="matrix(-0.000000261256,-0.117199,0.210958,-0.000000152308,-30.56642,95.392999)">
<stop offset="0" style="stop-color:rgb(0%,0%,0%);stop-opacity:0.313726;"/>
<stop offset="0.222222" style="stop-color:rgb(0%,0%,0%);stop-opacity:0.27451;"/>
<stop offset="1" style="stop-color:rgb(0%,0%,0%);stop-opacity:0;"/>
</radialGradient>
<radialGradient id="radial3" gradientUnits="userSpaceOnUse" cx="450.908936" cy="189.579361" fx="450.908936" fy="189.579361" r="21.166656" gradientTransform="matrix(0.000000261256,0.117199,-0.210958,0.000000152308,78.195969,-11.291219)">
<stop offset="0" style="stop-color:rgb(0%,0%,0%);stop-opacity:0.313726;"/>
<stop offset="0.222222" style="stop-color:rgb(0%,0%,0%);stop-opacity:0.27451;"/>
<stop offset="1" style="stop-color:rgb(0%,0%,0%);stop-opacity:0;"/>
</radialGradient>
<linearGradient id="linear1" gradientUnits="userSpaceOnUse" x1="169.333328" y1="233.5" x2="169.333328" y2="-168.666656" gradientTransform="matrix(0.093759,0,0,0.093759,0,20.158175)">
<stop offset="0" style="stop-color:rgb(25.882354%,25.882354%,25.882354%);stop-opacity:1;"/>
<stop offset="1" style="stop-color:rgb(38.039216%,38.039216%,38.039216%);stop-opacity:1;"/>
</linearGradient>
<linearGradient id="linear2" gradientUnits="userSpaceOnUse" x1="179.916672" y1="159.416672" x2="179.916672" y2="-94.583336" gradientTransform="matrix(3.779528,0,0,3.779528,40.000015,812.59845)">
<stop offset="0" style="stop-color:rgb(95.686275%,26.274511%,21.176471%);stop-opacity:1;"/>
<stop offset="1" style="stop-color:rgb(93.725491%,32.549021%,31.37255%);stop-opacity:1;"/>
</linearGradient>
<linearGradient id="linear3" gradientUnits="userSpaceOnUse" x1="179.916672" y1="159.416672" x2="179.916672" y2="-94.583336" gradientTransform="matrix(0.093759,0,0,0.093759,13.891951,20.158174)">
<stop offset="0" style="stop-color:rgb(95.686275%,26.274511%,21.176471%);stop-opacity:1;"/>
<stop offset="1" style="stop-color:rgb(93.725491%,32.549021%,31.37255%);stop-opacity:1;"/>
</linearGradient>
<linearGradient id="linear4" gradientUnits="userSpaceOnUse" x1="338.666656" y1="159.416672" x2="338.666656" y2="-94.583336" gradientTransform="matrix(0.093759,0,0,0.093759,0,20.158174)">
<stop offset="0" style="stop-color:rgb(89.803922%,45.09804%,45.09804%);stop-opacity:1;"/>
<stop offset="1" style="stop-color:rgb(93.725491%,60.392159%,60.392159%);stop-opacity:1;"/>
</linearGradient>
</defs>
<g id="surface1">
<path style=" stroke:none;fill-rule:nonzero;fill:url(#linear0);" d="M 8.929688 41.902344 L 38.699219 41.902344 L 38.699219 44.109375 L 8.929688 44.109375 Z M 8.929688 41.902344 "/>
<path style=" stroke:none;fill-rule:nonzero;fill:url(#radial0);" d="M 38.699219 42.050781 L 42.667969 42.050781 L 42.667969 40.066406 L 38.699219 40.066406 Z M 38.699219 42.050781 "/>
<path style=" stroke:none;fill-rule:nonzero;fill:url(#radial1);" d="M 8.929688 42.050781 L 4.960938 42.050781 L 4.960938 44.035156 L 8.929688 44.035156 Z M 8.929688 42.050781 "/>
<path style=" stroke:none;fill-rule:nonzero;fill:url(#radial2);" d="M 8.929688 42.050781 L 4.960938 42.050781 L 4.960938 40.066406 L 8.929688 40.066406 Z M 8.929688 42.050781 "/>
<path style=" stroke:none;fill-rule:nonzero;fill:url(#radial3);" d="M 38.699219 42.050781 L 42.667969 42.050781 L 42.667969 44.035156 L 38.699219 44.035156 Z M 38.699219 42.050781 "/>
<path style=" stroke:none;fill-rule:nonzero;fill:url(#linear1);" d="M 6.945312 4.34375 L 40.683594 4.34375 C 41.78125 4.34375 42.667969 5.234375 42.667969 6.328125 L 42.667969 40.066406 C 42.667969 41.164062 41.78125 42.050781 40.683594 42.050781 L 6.945312 42.050781 C 5.851562 42.050781 4.960938 41.164062 4.960938 40.066406 L 4.960938 6.328125 C 4.960938 5.234375 5.851562 4.34375 6.945312 4.34375 Z M 6.945312 4.34375 "/>
<path style=" stroke:none;fill-rule:nonzero;fill:rgb(90.196079%,90.196079%,90.196079%);fill-opacity:0.392157;" d="M 6.945312 4.34375 C 5.847656 4.34375 4.960938 5.230469 4.960938 6.328125 L 4.960938 6.578125 C 4.960938 5.476562 5.847656 4.589844 6.945312 4.59375 L 40.683594 4.59375 C 41.78125 4.589844 42.667969 5.476562 42.667969 6.578125 L 42.667969 6.328125 C 42.667969 5.230469 41.78125 4.34375 40.683594 4.34375 Z M 6.945312 4.34375 "/>
<path style=" stroke:none;fill-rule:nonzero;fill:rgb(0%,0%,0%);fill-opacity:0.196078;" d="M 6.945312 42.050781 C 5.847656 42.050781 4.960938 41.164062 4.960938 40.066406 L 4.960938 39.816406 C 4.960938 40.917969 5.847656 41.804688 6.945312 41.804688 L 40.683594 41.804688 C 41.78125 41.804688 42.667969 40.917969 42.667969 39.816406 L 42.667969 40.066406 C 42.667969 41.164062 41.78125 42.050781 40.683594 42.050781 Z M 6.945312 42.050781 "/>
<path style="fill:none;stroke-width:3;stroke-linecap:round;stroke-linejoin:miter;stroke:rgb(12.941177%,12.941177%,12.941177%);stroke-opacity:1;stroke-miterlimit:4;" d="M 74.076259 -168.671091 L 433.916896 -168.671091 C 445.624112 -168.671091 455.081542 -159.171998 455.081542 -147.506445 L 455.081542 212.334192 C 455.081542 224.041407 445.624112 233.498837 433.916896 233.498837 L 74.076259 233.498837 C 62.410707 233.498837 52.911614 224.041407 52.911614 212.334192 L 52.911614 -147.506445 C 52.911614 -159.171998 62.410707 -168.671091 74.076259 -168.671091 Z M 74.076259 -168.671091 " transform="matrix(0.093759,0,0,0.093759,0,20.158175)"/>
<path style="fill-rule:nonzero;fill:url(#linear2);stroke-width:11.338583;stroke-linecap:butt;stroke-linejoin:miter;stroke:rgb(12.941177%,12.941177%,12.941177%);stroke-opacity:1;stroke-miterlimit:4;" d="M 599.94274 455.074677 L 599.94274 1415.140526 L 601.202462 1415.140526 C 664.188577 1388.528892 730.796393 1368.845732 799.923653 1356.87837 L 799.923653 455.074677 Z M 599.94274 455.074677 " transform="matrix(0.0248071,0,0,0.0248071,0,0)"/>
<path style=" stroke:none;fill-rule:nonzero;fill:url(#linear3);" d="M 27.785156 11.289062 L 27.785156 33.660156 C 29.503906 33.957031 31.152344 34.445312 32.714844 35.105469 L 32.746094 35.105469 L 32.746094 11.289062 Z M 27.785156 11.289062 "/>
<path style=" stroke:none;fill-rule:nonzero;fill:rgb(100%,100%,100%);fill-opacity:0.392157;" d="M 27.785156 11.414062 L 27.785156 11.910156 L 32.746094 11.910156 L 32.746094 11.414062 Z M 27.785156 11.414062 "/>
<path style="fill:none;stroke-width:11.338583;stroke-linecap:butt;stroke-linejoin:miter;stroke:rgb(12.941177%,12.941177%,12.941177%);stroke-opacity:1;stroke-miterlimit:4;" d="M 1120.05058 455.074677 L 1120.05058 1356.87837 C 1189.335306 1368.845732 1255.785656 1388.528892 1318.771771 1415.140526 L 1320.031493 1415.140526 L 1320.031493 455.074677 Z M 1120.05058 455.074677 " transform="matrix(0.0248071,0,0,0.0248071,0,0)"/>
<path style=" stroke:none;fill-rule:nonzero;fill:url(#linear4);" d="M 14.882812 11.289062 L 26.929688 33.527344 C 28.957031 33.800781 30.894531 34.339844 32.714844 35.105469 L 32.746094 35.105469 L 19.84375 11.289062 Z M 14.882812 11.289062 "/>
<path style=" stroke:none;fill-rule:nonzero;fill:rgb(100%,100%,100%);fill-opacity:0.392157;" d="M 14.882812 11.4375 L 15.152344 11.933594 L 19.84375 11.933594 L 32.40625 35.125 C 32.511719 35.167969 32.613281 35.210938 32.714844 35.253906 L 32.746094 35.253906 L 19.84375 11.4375 Z M 14.882812 11.4375 "/>
<path style=" stroke:none;fill-rule:nonzero;fill:rgb(0%,0%,0%);fill-opacity:0.235294;" d="M 19.84375 20.449219 L 19.84375 21.152344 L 26.929688 34.230469 C 27.226562 34.269531 27.523438 34.316406 27.816406 34.367188 C 27.90625 34.382812 27.996094 34.398438 28.085938 34.414062 C 28.105469 34.417969 28.121094 34.421875 28.140625 34.425781 C 28.230469 34.441406 28.316406 34.460938 28.40625 34.476562 C 28.414062 34.480469 28.421875 34.480469 28.429688 34.484375 C 28.429688 34.484375 28.429688 34.484375 28.433594 34.484375 C 28.527344 34.503906 28.625 34.523438 28.71875 34.542969 C 28.734375 34.546875 28.746094 34.550781 28.757812 34.550781 C 28.851562 34.574219 28.945312 34.59375 29.039062 34.617188 C 29.054688 34.621094 29.070312 34.621094 29.082031 34.625 C 29.179688 34.648438 29.273438 34.671875 29.371094 34.695312 C 29.375 34.695312 29.378906 34.699219 29.382812 34.699219 C 29.476562 34.722656 29.570312 34.746094 29.664062 34.769531 C 29.675781 34.773438 29.6875 34.777344 29.699219 34.777344 C 29.789062 34.804688 29.882812 34.828125 29.976562 34.855469 C 29.988281 34.859375 30.003906 34.863281 30.019531 34.867188 C 30.109375 34.890625 30.203125 34.917969 30.292969 34.945312 C 30.308594 34.949219 30.320312 34.953125 30.332031 34.957031 C 30.425781 34.984375 30.519531 35.011719 30.617188 35.042969 C 30.707031 35.070312 30.800781 35.101562 30.894531 35.128906 C 30.910156 35.136719 30.925781 35.140625 30.9375 35.144531 C 31.027344 35.171875 31.113281 35.203125 31.203125 35.234375 C 31.21875 35.238281 31.238281 35.246094 31.253906 35.25 C 31.34375 35.28125 31.429688 35.3125 31.519531 35.34375 C 31.527344 35.347656 31.539062 35.351562 31.550781 35.355469 C 31.636719 35.382812 31.722656 35.417969 31.808594 35.449219 C 31.816406 35.453125 31.824219 35.453125 31.835938 35.457031 C 31.921875 35.492188 32.011719 35.523438 32.097656 35.558594 C 32.113281 35.566406 32.128906 35.570312 32.144531 35.578125 C 32.230469 35.609375 32.316406 35.644531 32.402344 35.679688 C 32.417969 35.683594 32.433594 35.691406 32.449219 35.699219 C 32.539062 35.734375 32.625 35.769531 32.714844 35.808594 L 32.746094 35.808594 L 32.746094 35.105469 L 32.714844 35.105469 C 32.625 35.066406 32.539062 35.03125 32.449219 34.996094 C 32.433594 34.988281 32.417969 34.984375 32.402344 34.976562 C 32.316406 34.941406 32.230469 34.90625 32.144531 34.875 C 32.128906 34.867188 32.113281 34.863281 32.097656 34.855469 C 32.011719 34.820312 31.921875 34.789062 31.835938 34.753906 C 31.824219 34.753906 31.816406 34.75 31.808594 34.746094 C 31.722656 34.714844 31.636719 34.683594 31.550781 34.652344 C 31.539062 34.648438 31.527344 34.644531 31.519531 34.640625 C 31.429688 34.609375 31.34375 34.578125 31.253906 34.546875 C 31.238281 34.542969 31.21875 34.535156 31.203125 34.53125 C 31.113281 34.5 31.027344 34.472656 30.9375 34.441406 C 30.925781 34.4375 30.910156 34.433594 30.894531 34.429688 C 30.800781 34.398438 30.707031 34.367188 30.617188 34.339844 C 30.519531 34.308594 30.425781 34.28125 30.332031 34.253906 C 30.320312 34.25 30.308594 34.246094 30.292969 34.242188 C 30.203125 34.214844 30.109375 34.191406 30.019531 34.164062 C 30.003906 34.160156 29.988281 34.15625 29.976562 34.152344 C 29.882812 34.125 29.789062 34.101562 29.699219 34.078125 C 29.6875 34.074219 29.675781 34.070312 29.664062 34.066406 C 29.570312 34.042969 29.476562 34.019531 29.382812 33.996094 C 29.378906 33.996094 29.375 33.992188 29.371094 33.992188 C 29.273438 33.96875 29.179688 33.945312 29.082031 33.921875 C 29.070312 33.921875 29.054688 33.917969 29.039062 33.914062 C 28.945312 33.890625 28.851562 33.871094 28.757812 33.851562 C 28.746094 33.847656 28.734375 33.84375 28.71875 33.839844 C 28.625 33.820312 28.527344 33.800781 28.433594 33.78125 C 28.429688 33.78125 28.429688 33.78125 28.429688 33.78125 C 28.421875 33.777344 28.414062 33.777344 28.40625 33.777344 C 28.316406 33.757812 28.230469 33.742188 28.140625 33.722656 C 28.121094 33.71875 28.105469 33.714844 28.085938 33.714844 C 27.996094 33.695312 27.90625 33.679688 27.816406 33.664062 C 27.523438 33.613281 27.226562 33.566406 26.929688 33.527344 Z M 19.84375 33.660156 C 18.128906 33.957031 16.476562 34.445312 14.914062 35.105469 L 14.882812 35.105469 L 14.882812 35.808594 L 14.914062 35.808594 C 16.476562 35.148438 18.128906 34.660156 19.84375 34.359375 Z M 19.84375 33.660156 "/>
<path style="fill:none;stroke-width:11.338583;stroke-linecap:butt;stroke-linejoin:miter;stroke:rgb(12.941177%,12.941177%,12.941177%);stroke-opacity:1;stroke-miterlimit:4;" d="M 599.94274 455.074677 L 1085.565682 1351.52455 C 1167.290166 1362.54712 1245.392947 1384.27733 1318.771771 1415.140526 L 1320.031493 1415.140526 L 799.923653 455.074677 Z M 599.94274 455.074677 " transform="matrix(0.0248071,0,0,0.0248071,0,0)"/>
</g>
</svg>
